symbols/web/shopping_bag/materialsymbolsoutlined/shopping_bag_wght700_40px.svg

<svg xmlns="http://www.w3.org/2000/svg" height="40" width="40"><path d="M9.875 37.458q-1.833 0-3.104-1.27Q5.5 34.917 5.5 33.083V13.375q0-1.833 1.271-3.104Q8.042 9 9.875 9h2.958v-.292Q12.917 5.792 15 3.792q2.083-2 5-2t5 2q2.083 2 2.167 4.916V9h2.958q1.833 0 3.125 1.271t1.292 3.104v19.708q0 1.834-1.292 3.105-1.292 1.27-3.125 1.27Zm7.333-28.75V9h5.584v-.292q-.125-1.083-.917-1.812-.792-.729-1.875-.729-1.125 0-1.896.729-.771.729-.896 1.812ZM9.875 33.083h20.25V13.375h-2.958v2.792q0 .916-.625 1.562T25 18.375q-.917 0-1.542-.646t-.625-1.562v-2.792h-5.666v2.792q0 .916-.625 1.562T15 18.375q-.917 0-1.542-.646t-.625-1.562v-2.792H9.875v19.708Zm0 0V13.375v19.708Z"/></svg>

<svg xmlns="http://www.w3.org/2000/svg" height="40" width="40"><path d="M9.875 37.458Q8.042 37.458 6.771 36.188Q5.5 34.917 5.5 33.083V13.375Q5.5 11.542 6.771 10.271Q8.042 9 9.875 9H12.833V8.708Q12.917 5.792 15 3.792Q17.083 1.792 20 1.792Q22.917 1.792 25 3.792Q27.083 5.792 27.167 8.708V9H30.125Q31.958 9 33.25 10.271Q34.542 11.542 34.542 13.375V33.083Q34.542 34.917 33.25 36.188Q31.958 37.458 30.125 37.458ZM17.208 8.708V9H22.792V8.708Q22.667 7.625 21.875 6.896Q21.083 6.167 20 6.167Q18.875 6.167 18.104 6.896Q17.333 7.625 17.208 8.708ZM9.875 33.083H30.125Q30.125 33.083 30.125 33.083Q30.125 33.083 30.125 33.083V13.375Q30.125 13.375 30.125 13.375Q30.125 13.375 30.125 13.375H27.167V16.167Q27.167 17.083 26.542 17.729Q25.917 18.375 25 18.375Q24.083 18.375 23.458 17.729Q22.833 17.083 22.833 16.167V13.375H17.167V16.167Q17.167 17.083 16.542 17.729Q15.917 18.375 15 18.375Q14.083 18.375 13.458 17.729Q12.833 17.083 12.833 16.167V13.375H9.875Q9.875 13.375 9.875 13.375Q9.875 13.375 9.875 13.375V33.083Q9.875 33.083 9.875 33.083Q9.875 33.083 9.875 33.083ZM9.875 33.083Q9.875 33.083 9.875 33.083Q9.875 33.083 9.875 33.083V13.375Q9.875 13.375 9.875 13.375Q9.875 13.375 9.875 13.375Q9.875 13.375 9.875 13.375Q9.875 13.375 9.875 13.375V33.083Q9.875 33.083 9.875 33.083Q9.875 33.083 9.875 33.083Z"/></svg>
